X:1
T:Clarendon, CM
T:Clarendon, CM
T:Isaac Tucker (1761-1825)
T:Public Domain Courtesy of the Cyber Hymnal™
C:Isaac Tucker (1761-1825)
Z:Public Domain
Z:Courtesy of the Cyber Hymnal™
%%score ( 1 2 ) ( 3 4 )
L:1/8
Q:1/2=103
M:2/2
K:F
V:1 treble 
V:2 treble 
V:3 bass 
V:4 bass 
V:1
 F4 | [FA]4 [FA]4 | ([FA]2 [EG]2) ([FA]2 [GB]2) | [Fc]4 [EB]4 | [FA]4 (A3 B) | c4 (c2 f2) | %6
 (e2 c2) (B2 A2) | [FA]4 [EG]4 | z4 [EG]4 | (c2 G2) ([FA]2 [GB]2) | [FA]4 (A2 G2) | %11
 ([CF]2 [EG]2) (A2 =B2) | [Ec]4 [Fc]4 | (d2 e2) (f2 d2) | (c2 B2) (A2 G2) | [CF]4 |] %16
V:2
 F4 | x8 | x8 | x8 | x4 C4 | (C2 F2) F4 | F4 F4 | x8 | x8 | E4 x4 | x4 C4 | x4 F4 | x8 | F4 F4 | %14
 C4 C4 | x4 |] %16
V:3
 [F,A,]4 | [F,C]4 [F,C]4 | [C,C]4 C4 | [A,C]4 [G,C]4 | [F,C]4 (F,3 G,) | [F,A,]4 [F,A,]4 | %6
 (B,2 A,2) (D2 C2) | [C,C]8 | z4 [C,C]4 | [C,C]4 [C,C]4 | C4 C4 | %11
 ([A,C]2 [G,B,]2) ([F,A,]2 [D,G,]2) | [C,G,]4 [F,A,]4 | (B,2 C2) (D2 B,2) | (A,2 G,2) (C2 B,2) | %15
 [F,A,]4 |] %16
V:4
 x4 | x8 | x4 (C2 B,2) | x8 | x4 F,4 | x8 | F,4 F,4 | x8 | x8 | x8 | (F,2 A,2) (C2 B,2) | x8 | x8 | %13
 B,,4 B,,4 | C,4 C,4 | x4 |] %16

